src/assets/img/groups.svg

<?xml version="1.0" standalone="no"?>
<!DOCTYPE svg PUBLIC "-//W3C//DTD SVG 1.0//EN" "http://www.w3.org/TR/2001/REC-SVG-20010904/DTD/svg10.dtd">
<svg xmlns="http://www.w3.org/2000/svg" xmlns:xlink="http://www.w3.org/1999/xlink" id="body_1" width="50" height="50">

<g transform="matrix(0.052083336 0 0 0.052083336 -0 -5)">
    <path d="M-8 824L-8 763C -8 733.85205 6.65 710.7317 35.95 693.639C 65.25 676.5463 103.39934 668 150.398 668C 155.83667 668 160.96333 668.1667 165.778 668.5C 170.59267 668.8334 175.66667 668.909 181 668.727C 175 681.6043 170.33334 694.74695 167 708.15497C 163.66667 721.5624 162 735.844 162 751L162 751L162 824L-8 824zM232 824L232 751C 232 704.8854 254.79834 667.8567 300.395 639.914C 330.7928 621.2856 390.61978 607.3142 479.876 598C 554.62537 598 614.6667 611.9714 660 639.914C 690.2222 658.5424 712.8889 695.5711 728 751L728 751L728 824L232 824zM798 824L798 750.857C 798 736.1317 796.5 721.99603 793.5 708.45C 790.5 694.9034 786 681.66235 780 668.727C 785.3334 668.909 790.4097 668.8334 795.229 668.5C 800.0477 668.1667 804.9714 668 810 668C 857.80005 668 896.0834 676.5463 924.85 693.639C 953.6167 710.7317 968.00006 733.85205 968 763L968 763L968 824L798 824zM149.611 640C 129.20367 640 111.66667 632.66504 97 617.995C 82.333336 603.32434 75 585.6887 75 565.088C 75 544.3627 82.335 526.6667 97.005 512C 111.67567 497.33337 129.31134 490.00003 149.912 490C 170.63734 490.00003 188.33334 497.30835 203 511.925C 212.77779 521.66943 220.11111 539.4908 225 565.389C 225 585.7963 217.69167 603.3334 203.075 618C 188.45833 632.6667 170.637 640 149.611 640zM809.61096 640C 789.20374 640 771.66675 632.66504 757 617.995C 742.3334 603.32434 735 585.6887 735 565.088C 735 544.3627 742.335 526.6667 757.005 512C 771.6757 497.33337 789.3114 490.00003 809.912 490C 830.6373 490.00003 848.3334 497.30835 863 511.925C 872.7778 521.66943 880.1111 539.4908 885 565.389C 885 585.7963 877.69165 603.3334 863.075 618C 848.4584 632.6667 830.6371 640 809.611 640zM480.47095 568C 445.04562 568 414.77762 555.5964 389.66693 530.789C 364.55566 505.98236 352 475.85968 352 440.421C 352 404.807 364.55566 374.5 389.667 349.5C 414.77768 324.5 445.0457 312 480.471 312C 516.07104 312 546.2257 324.42267 570.935 349.268C 595.645 374.11267 608 404.435 608 440.235C 608 475.85632 595.645 506.05566 570.935 530.833C 546.2257 555.611 516.07104 568 480.471 568z" stroke="none" fill="#000000" fill-rule="nonzero" />
</g>
</svg>

<svg xmlns="http://www.w3.org/2000/svg" height="48" viewBox="0 96 960 960" width="48"><path d="M-8 824v-61q0-43.722 43.95-69.361Q79.9 668 150.398 668q8.158 0 15.38.5 7.222.5 15.222.227-9 19.316-14 39.428-5 20.111-5 42.845v73H-8Zm240 0v-73q0-69.172 68.395-111.086T479.876 598Q592 598 660 639.914T728 751v73H232Zm566 0v-73.143q0-22.088-4.5-42.407-4.5-20.32-13.5-39.723 8 .273 15.229-.227 7.228-.5 14.771-.5 71.7 0 114.85 25.639Q968 719.278 968 763v61H798ZM149.611 640Q119 640 97 617.995q-22-22.006-22-52.907Q75 534 97.005 512q22.006-22 52.907-22Q181 490 203 511.925t22 53.464Q225 596 203.075 618q-21.925 22-53.464 22Zm660 0Q779 640 757 617.995q-22-22.006-22-52.907Q735 534 757.005 512q22.006-22 52.907-22Q841 490 863 511.925t22 53.464Q885 596 863.075 618q-21.925 22-53.464 22Zm-329.14-72q-53.138 0-90.804-37.211Q352 493.579 352 440.421 352 387 389.667 349.5q37.666-37.5 90.804-37.5 53.4 0 90.464 37.268Q608 386.535 608 440.235q0 53.432-37.065 90.598Q533.871 568 480.471 568Z"/></svg>
